X: 150
T:O'Donnel Abu
M:4/4
L:1/8
Z:abc by Bruce Osborne - bosborne@kos.net
K:G
G2B>c d2Bd|b2g>e d2cB|A2A>B c2BA|G2B>c d4|!
G2B>c d2Bd|b2ge d2cB|A2a>g fdef|g2g>a g2z2:|!
|:b2b>a ged2|g2g>e dBG2|c2cc B2dB|A2A>B A4|!
G2B>c ded2|b2ge dcBc|A2a>g fdef|g2g>a g2z2:|!
